X:1
T:Come to the Manger
T:Traditonal Tune
T:Come to the Manger
T:Public Domain
T:Public Domain
T:Public Domain
C:Traditonal Tune
Z:Public Domain
%%score ( 1 2 ) ( 3 4 )
L:1/8
M:6/4
K:A
V:1 treble 
V:2 treble 
V:3 bass 
V:4 bass 
V:1
 [EA]6 [^DB]6 | [DE]3 [DF] [DG]2 [CF]4 [CE]2 | [CA]4 [EB]2 [Ec]3 [Ed] [Ec]2 | [FB]4 F2 [EB]6 | %4
w: ~ ~|~ ~ ~ ~ ~|~ ~ ~ ~ ~|~ ~ ~|
w: Come, come,|come to the man- ger,|Child- ren, come, to the|child- ren’s King;|
w: ~ ~|~ ~ ~ ~ ~|~ ~ ~ ~ ~|~ ~ ~|
 [EA]6 [^DB]6 | [DE]3 [DF] [DG]2 [CF]4 [CE]2 | [CA]4 [EB]2 [Ec]3 [Ed] [Ec]2 | %7
w: ~ ~|~ ~ ~ ~ ~|~ ~ ~ ~ ~|
w: sing, chor-|us of an- gels, Stars|of morn- ing, o’er Beth-|
w: ~ ~|~ ~ ~ ~ ~|~ ~ ~ ~ ~|
 [FB]2 [EA]2 [EG]2 [EA]4 | ([Ac][Ac]) | [Ac]3 [GB] [Ac]2 [FA]2 [GB]2 [Ac]2 | (F6 E2) [Ee]2 [Bd]2 | %11
w: ~ ~ ~ 1.~He|lies *|’mid the beasts of the stall,|Who * is Mak-|
w: le- hem sing! 2.~He|leaves *|all His glo- ry be- hind,|To * be born|
w: ~ ~ ~ 3.~To~the|man- *|ger of Beth- le- hem come,|To * the Sav-|
 [Ac]3 [AB] [Ac]2 [Ac]2 [GB]2 [FA]2 | (G4 F2 G2 F2) E2 | [EA]4 [EB]2 [Ec]4 [Ad]2 | %14
w: and Lord of us all, The|win- * * * try|cold and drear- y,|
w: to die for man- kind; With|grate- * * * ful|cra- dle choos- es,|
w: Em- man- u- el’s home; The|heav’n- * * * ly|bove are sing- ing,|
 [Ee]4 [EA]2 [EG]4 E2 | [Ee]4 [EA]2 [EG]4 E2 | [Ee]4 [FA]2 ([EG]2 [DF]2) [DE]2 | %17
w: See, He weeps, the|is wear- y; Lord,|pi- ty and * mer-|
w: Thank- less man His|re- fus- es; Lord,|pi- ty and * mer-|
w: Set the Christ- mas|a- ring- ing, Lord,|pi- ty and * mer-|
 [EA]4 [EB]2 [Ec]3 [Ed] [Ec]2 | [FB]2 [FA]2 [EG]2 [EA]6 |] %19
w: cy on me! * *||
w: cy on me! * *||
w: cy on me! * *||
V:2
 x12 | x12 | x12 | x4 F2 x6 | x12 | x12 | x12 | x10 | x2 | x12 | d8 x4 | x12 | B6- B4 E2 | x12 | %14
w: |||~|||||||er||wind * blows||
w: |||Sing,|||||||and||beasts * His||
w: |||~|||||||ior||hosts * a-||
 x10 E2 | x10 E2 | x12 | x12 | x12 |] %19
w: world|have||||
w: love|have||||
w: bells|have||||
V:3
 [A,C]6 [F,A,]6 | [G,B,]3 [F,B,] [E,B,]2 A,4 [G,A,]2 | [F,A,]4 [E,G,]2 [A,,A,]3 [A,,A,] [C,A,]2 | %3
 [D,A,]4 [^D,A,]2 A,4 G,2 | [C,A,]6 [B,,F,]6 | [E,G,]3 [E,A,] [E,B,]2 [A,,A,]4 [A,,A,]2 | %6
 [F,A,]4 [E,G,]2 [A,,A,]3 [A,,A,] [C,A,]2 | [D,D]2 [E,C]2 [E,B,]2 [A,,C]4 | z2 | %9
 z4 z2 z4 [F,A,][F,A,] | [B,,A,]3 [C,A,] [D,A,]2 [E,A,]2 [E,G,]2 [G,E]2 | %11
 [A,E]3 [A,E] [G,E]2 [F,E]2 [F,E]2 [B,^D]2 | ([E,-D]6 B,2 A,2) [D,G,]2 | %13
 [C,A,]4 [B,,G,]2 [A,,A,]4 [F,A,]2 | [C,A,]4 [A,,C]2 [E,B,]4 [E,G,]2 | %15
 [C,A,]4 [A,,C]2 [E,B,]4 [E,G,]2 | A,2 C2 [^D,B,]2 ([E,B,]2 [F,A,]2) [G,B,]2 | %17
 [A,C]4 [G,B,]2 A,3 A, [C,A,]2 | [D,D]2 [D,C]2 [E,B,]2 [A,,C]6 |] %19
V:4
 x12 | x6 A,4 x2 | x12 | x6 E,6 | x12 | x12 | x12 | x10 | x2 | x12 | x12 | x12 | x6 E,4 x2 | x12 | %14
 x12 | x12 | E,4 x8 | x6 A,3 A, x2 | x12 |] %19

